X:6694
T:the Derby Hunt
O:england
R:Slip jig
M:9/8
L:1/8
K:D
d2d ded c2A | Bcd def g2e |\
d2d ded c2A | Bcd ABG F2D :|
|:G2B Bcd Bcd | FGA AFD AFD |\
G2B Bcd Bcd | cea abg f2d :|
